.local/share/icons/Gruvbox-Plus-Dark/panel/16/si-syncthing-idle.svg

<svg xmlns="http://www.w3.org/2000/svg" width="16" height="16" version="1.1">
 <defs>
  <style id="current-color-scheme" type="text/css">
   .ColorScheme-Text { color:#ebdbb2; } .ColorScheme-Highlight { color:#458588; }
  </style>
 </defs>
 <path style="fill:currentColor" class="ColorScheme-Text" d="m 3.0502525,3.0502525 a 7,7 0 0 0 0,9.8994945 7,7 0 0 0 9.8994945,0 7,7 0 0 0 0,-9.8994945 7,7 0 0 0 -9.8994945,0 z m 1.4142136,1.4142136 a 5,5 0 0 1 6.3391019,-0.6021456 1.5,1.5 0 0 1 1.792626,0.2485922 1.5,1.5 0 0 1 0.05248,2.0633155 5,5 0 0 1 0.0028,3.6543055 1.5,1.5 0 0 1 -0.05524,2.0605533 1.5,1.5 0 0 1 -1.794007,0.247211 5,5 0 0 1 -6.3377209,-0.600764 5,5 0 0 1 -0.059386,-0.06215 1.5,1.5 0 0 1 -1.7083811,-0.291405 1.5,1.5 0 0 1 0,-2.1213208 1.5,1.5 0 0 1 0.3728883,-0.2706893 5,5 0 0 1 1.3948787,-4.3255048 z m 0.7071068,0.7071068 a 4,4 0 0 0 -1.1131408,3.4802912 1.5,1.5 0 0 1 0.7595874,0.4087961 1.5,1.5 0 0 1 0.040051,0.045575 L 7.2114103,8.0980558 A 1.5,1.5 0 0 1 7.6464466,6.9393398 1.5,1.5 0 0 1 9.3520655,6.6479345 L 10.183469,5.8165313 A 1.5,1.5 0 0 1 10.140656,4.6274317 4,4 0 0 0 5.1715729,5.1715729 Z m 0.080102,4.8530731 a 1.5,1.5 0 0 1 -0.140869,0.73749 4,4 0 0 0 0.060767,0.06629 4,4 0 0 0 4.9690831,0.546903 1.5,1.5 0 0 1 0.04281,-1.191861 L 9.3520655,9.3520655 A 1.5,1.5 0 0 1 7.6464466,9.0606602 1.5,1.5 0 0 1 7.6063956,9.0150849 L 5.2516748,10.024646 Z M 10.059172,7.3550413 a 1.5,1.5 0 0 1 0,1.2899174 l 0.831403,0.8314032 a 1.5,1.5 0 0 1 0.870073,-0.1270587 4,4 0 0 0 0,-2.6958444 1.5,1.5 0 0 1 -0.870073,-0.1298207 l -0.831403,0.8314032 z"/>
</svg>

<svg width="16" height="16" version="1.1" xmlns="http://www.w3.org/2000/svg">
  <defs>
    <style id="current-color-scheme" type="text/css">.ColorScheme-Text { color:#ebdbb2; } .ColorScheme-Highlight { color:#458588; } .ColorScheme-NeutralText { color:#fe8019; } .ColorScheme-PositiveText { color:#689d6a; } .ColorScheme-NegativeText { color:#fb4934; }</style>
  </defs>
  <path class="ColorScheme-Text" d="m3.05 3.05a7 7 0 0 0 0 9.899 7 7 0 0 0 9.899 0 7 7 0 0 0 0-9.899 7 7 0 0 0-9.899 0zm1.414 1.414a5 5 0 0 1 6.339-0.6021 1.5 1.5 0 0 1 1.793 0.2486 1.5 1.5 0 0 1 0.05248 2.063 5 5 0 0 1 0.0028 3.654 1.5 1.5 0 0 1-0.05524 2.061 1.5 1.5 0 0 1-1.794 0.2472 5 5 0 0 1-6.338-0.6008 5 5 0 0 1-0.05939-0.06215 1.5 1.5 0 0 1-1.708-0.2914 1.5 1.5 0 0 1 0-2.121 1.5 1.5 0 0 1 0.3729-0.2707 5 5 0 0 1 1.395-4.326zm0.7071 0.7071a4 4 0 0 0-1.113 3.48 1.5 1.5 0 0 1 0.7596 0.4088 1.5 1.5 0 0 1 0.04005 0.04558l2.353-1.008a1.5 1.5 0 0 1 0.435-1.159 1.5 1.5 0 0 1 1.706-0.2914l0.8314-0.8314a1.5 1.5 0 0 1-0.04281-1.189 4 4 0 0 0-4.969 0.5441zm0.0801 4.853a1.5 1.5 0 0 1-0.1409 0.7375 4 4 0 0 0 0.06077 0.06629 4 4 0 0 0 4.969 0.5469 1.5 1.5 0 0 1 0.04281-1.192l-0.8314-0.8314a1.5 1.5 0 0 1-1.706-0.2914 1.5 1.5 0 0 1-0.04005-0.04558l-2.355 1.01zm4.807-2.67a1.5 1.5 0 0 1 0 1.29l0.8314 0.8314a1.5 1.5 0 0 1 0.8701-0.1271 4 4 0 0 0 0-2.696 1.5 1.5 0 0 1-0.8701-0.1298l-0.8314 0.8314z" fill="currentColor"/>
</svg>
